!!!OTL: Bluechers Mahlzeit.
!!!OTL-incipit: AUF EINEM SCHOENEN GRUENEN RASEN
!!!ARE: Europa, Mitteleuropa, Deutschland, Nord - Deutschland
!!!SCT: Z1134
!!!TXL: @@DE
!!!YEM: Copyright 1995, estate of Helmut Schaffrath.
**kern	**text
*ICvox	*
!! Mixed meters:  3/4; 4/4
*M3/4	*
*k[b-e-a-]	*
*E-:	*
!LO:TX:a:t=Norddeutſch.	!
{8e-	Auf
8e-	ei-
8e-	-nem
=1	=1
4.e-	ſchö-
8e-	-nen
8f	grü-
8g	-nen
=2	=2
4g	Ra-
8f}	-ſen
{8f	ließ
8f	Blü-
8g	-cher
=3	=3
4.a-	ſich
8f	ʒur
8b-	Mahlʒeit
8a-	.
=4	=4
4a-	bla-
4g}	-ſen,
{8g	un-
8a-	-ſer
=5	=5
4.b-/	al-
8g	-te
8cc/	Feldmar-
8b-/	.
=6	=6
(4a-	-ſchall.
4g)}	.
!LO:TX:a:t=Rascher.	!
{4b-/	Sie
=7	=7
4g	rüh-
4b-/	-ren
4b-/	die
=8	=8
4ee-/	Trommeln
4b-/	.
4b-/	und
=9	=9
4a-	ſchla-
4cc/	-gen
4cc/	den
=10	=10
4ee-/	Lär-
4dd/}	-men,
{4cc/	und
=11	=11
4cc/	laſ-
4b-/	-ſen
4b-/	die
=12	=12
4ee-/	feu-
4b-/	-ri-
4a-	-gen
=13	=13
4a-	Bomben
4g	.
4g	ſchon
=14	=14
4g	ſchwärmen;
4a-}	.
{4b-/	die
=15	=15
*M4/4	*
*met(c)	*
!LO:TX:a:t=Langsamer.	!
2cc/	blu-
4dd/	-ti-
4dd/	-ge
=16	=16
(>2ee-/	Mahl-
4.cc/)	.
8a-	-ʒeit
=17	=17
2g	geht
2f	ſchon
=18	=18
2e-	an!
8r}	.
==	==
!!!AGN: Vaterland und Wehr
!!!ONB: ESAC (Essen Associative Code) Database: ZUCCAL
!!!AMT: irregular
!!!AIN: vox
!!!EED: Helmut Schaffrath
!!!EEV: 1.0
!!!RDF**kern: >= above
!!!GTL: IV. Vaterland und Wehr.
!!!URL-scan: https://www.digitale-sammlungen.de/de/view/bsb11160573?page=299
!!!ENC: Anna Maria Matuszewska
!!!EEV: 2025/02/04
*-	*-
